X:1
T:Lost on the Lady Elgin
M:4/4
L:1/4
K:A
 E E3/4 E/4 F E| E/2 A3/2 A A3/4 A/4| G A B2| c A3/4 A/4 A3/4 B/4- c|\
 d/2 d B/2 B3/2 A/2| c B A2| B B3/4 B/4 B3/2 A/2| G/2 E3/2 A A3/4 A/4|\
 G A B2| c A3/4 A/4 A3/4- B/4 c| d/2 d B/2 B3/2 A/2| c B A2| c A3/4 A/4 A3/2 A/2|\
 A/2 A3/2 F F3/4 G/4| A B c2| c A3/4 A/4 A3/4- B/4 c| d/2 d B/2 B3/2 A/2|\
 c B A2|
